X: 1
T: Muse Cottage for Muriel & Bill
C: Bill Clement
R: reel
Z: 2005 John Chambers <jc:trillian.mit.edu>
S: image from Atsuko Clement
M: C|
L: 1/8
K: Amix
|: f  | "A"AABd "D"f2ed | "D"fdfa "E7"edBd | "A"AABd  "D"f2ed | "E7"edBd    e3f |
y4    | "A"AABd "D"f2ed | "D"fdfa "E7"edBd | "A"AABd "E7"edBd | "E7"BBA2 "A"A2 :|
[|f/g/| "D"adfa "A"feef | "E7"edBd "A"BBA2 | "D"adfa  "A"feef | "E7"edBd e2f"(#)"g |
y4    | "D"adfa "A"feef | "E7"edBd "A"BBA2 | "A"AABd "E7"edBd | "E7"BBA2 "A"A2 |]
